X: 16
T:Bean Setting (North Skelton)
% Nottingham Music Database
S:EF
M:6/8
K:G
G/2A/2|"G"BAG D2D|"C"EFG "D7"FED|"G"BAG D2D|"C"E2D "D7"G2A|"G"BAG D2D|
"C"EFG "D7"FED|"G"BAG D2D|"C"E2D "D7"G2A|"G"B2B "D"A2A|"Em"G2G "Bm"FED|
"Em"G2B "D7"A2F|"G"G2B "G7"d3|"C"e2e "G"d2B|"D7"c2c "G"BAG|"G"GAB "C"c2B|\
"D7"AGF "G"G2||


